X: 29756
T: O Dear Mother My Toes Are Sore
R: jig
M: 6/8
K: Aminor
e2^f edB|GA>B AGE|CD2 ^F/E/DF|A3 A z2:|
e2^f g2a|ge^c dzg|e>ge dBG|ABA GEC|

